X:68
T:Kas a-barh
C:Skeduz "Rag ar plinn"
M:4/4
L:1/8
K:G
B2AG d2dG|A2Ac B2G2|BBAG d2GA|(3BAG AF G4:|\
|:B2GA B2GA|B2c2A2d2|
d2G2 d2G2|A2Ac B2G2|\
B2GA B2GA|B2c2A2d2|d2G2 d2GA|(3BAG AF G4:|
